src/assets/icons/tech/ruby-on-rails.svg

<svg enable-background="new 0 0 1000 1000" fill="#cb2026" viewBox="0 0 1000 1000" xmlns="http://www.w3.org/2000/svg"><path d="m990 204.2-21.6 32.4s-54-61.1-152.8-50.4c-98.9 10.8-273.3 111.5-300.3 332.7-27 221.1 79.1 462.1 79.1 462.1h-478.3s-12.6-79.1 18-230.2c30.6-151 75.5-251.7 152.8-395.6 77.3-143.8 201.4-262.5 381.2-278.7 179.8-16.1 321.9 127.7 321.9 127.7zm-969.2 535.9-10.8 89.9 88.1 10.8 16.2-93.5zm172.6-268-82.7-32.4-27 75.5 84.5 27zm140.3-228.3-62.9-41.4-50.3 55.7 64.7 43.2zm181.6-147.5-43.2-48.6-59.3 30.6 43.2 52.1zm192.4-27-7.2-46.8-77.3-3.5 10.8 52.2zm224.8 48.6-59.3-43.2-1.8 32.4 50.3 27zm-70.2 122.3 48.6 5.4v-21.6l-48.6-10.8zm-154.6-3.6 23.4 43.1 34.2-27-7.3-28.7zm-37.8 109.7-36-53.9-37.8 34.2 52.1 57.5zm-131.2 142 61.1 52.2 14.4-59.3-52.2-39.6zm-5.4 179.8 75.5 32.4-3.6-59.3-68.3-36zm138.4 230.2-34.2-70.1h-79.1l18 64.7z"/></svg>

<svg fill="#CB2026" version="1.1" xmlns="http://www.w3.org/2000/svg" xmlns:xlink="http://www.w3.org/1999/xlink" x="0px" y="0px" viewBox="0 0 1000 1000" enable-background="new 0 0 1000 1000" xml:space="preserve">
<g><g id="_x35_151e0c8492e5103c096af88a51f6584"><path d="M990,204.2l-21.6,32.4c0,0-54-61.1-152.8-50.4C716.7,197,542.3,297.7,515.3,518.9C488.3,740,594.4,981,594.4,981H116.1c0,0-12.6-79.1,18-230.2c30.6-151,75.5-251.7,152.8-395.6C364.2,211.4,488.3,92.7,668.1,76.5C847.9,60.4,990,204.2,990,204.2z M20.8,740.1L10,830l88.1,10.8l16.2-93.5L20.8,740.1z M193.4,472.1l-82.7-32.4l-27,75.5l84.5,27L193.4,472.1z M333.7,243.8l-62.9-41.4l-50.3,55.7l64.7,43.2L333.7,243.8z M515.3,96.3l-43.2-48.6l-59.3,30.6l43.2,52.1L515.3,96.3z M707.7,69.3l-7.2-46.8L623.2,19L634,71.2L707.7,69.3z M932.5,117.9l-59.3-43.2l-1.8,32.4l50.3,27L932.5,117.9z M862.3,240.2l48.6,5.4V224l-48.6-10.8V240.2z M707.7,236.6l23.4,43.1l34.2-27L758,224L707.7,236.6z M669.9,346.3l-36-53.9l-37.8,34.2l52.1,57.5L669.9,346.3z M538.7,488.3l61.1,52.2l14.4-59.3L562,441.6L538.7,488.3z M533.3,668.1l75.5,32.4l-3.6-59.3l-68.3-36L533.3,668.1z M671.7,898.3l-34.2-70.1h-79.1l18,64.7L671.7,898.3z"/></g></g>
</svg>
